icons/cloud-cross.svg

<svg xmlns="http://www.w3.org/2000/svg" width="24" height="24" viewBox="0 0 24 24">
  <path d="M12.5,3 C16.918278,3 20.5,6.581722 20.5,11 C20.5,11.1204206 20.4973322,11.2405319 20.4920144,11.3602705 L20.4920144,11.3602705 L20.472,11.654 L20.5287365,11.6859719 C21.9683651,12.5292172 22.9183208,14.0574067 22.9949844,15.7749408 L22.9949844,15.7749408 L23,16 C23,18.6686219 20.9044736,20.8633628 18.2241536,20.9948042 L18.2241536,20.9948042 L18,21 L6.5,21 C6.38859112,21 6.28147754,20.9817932 6.18145173,20.9482064 L6.18145173,20.9482064 L6.166,20.942 L5.94889404,20.9081606 C3.19270368,20.4215684 1.11197825,18.064907 1.0043751,15.2308104 L1.0043751,15.2308104 L1,15 C1,12.5890868 2.43448394,10.4577805 4.56984355,9.51249345 L4.56984355,9.51249345 L4.646,9.48 L4.66919046,9.36089212 C5.4117318,5.78500472 8.52762508,3.12063681 12.2455902,3.00398632 L12.2455902,3.00398632 Z M10.6128994,10.2097046 C10.2206082,9.90467972 9.65337718,9.93240926 9.29289322,10.2928932 C8.90236893,10.6834175 8.90236893,11.3165825 9.29289322,11.7071068 L9.29289322,11.7071068 L10.585,13 L9.29289322,14.2928932 L9.20970461,14.3871006 C8.90467972,14.7793918 8.93240926,15.3466228 9.29289322,15.7071068 C9.68341751,16.0976311 10.3165825,16.0976311 10.7071068,15.7071068 L10.7071068,15.7071068 L12,14.415 L13.2928932,15.7071068 L13.3871006,15.7902954 C13.7793918,16.0953203 14.3466228,16.0675907 14.7071068,15.7071068 C15.0976311,15.3165825 15.0976311,14.6834175 14.7071068,14.2928932 L14.7071068,14.2928932 L13.415,13 L14.7071068,11.7071068 L14.7902954,11.6128994 C15.0953203,11.2206082 15.0675907,10.6533772 14.7071068,10.2928932 C14.3165825,9.90236893 13.6834175,9.90236893 13.2928932,10.2928932 L13.2928932,10.2928932 L12,11.585 L10.7071068,10.2928932 Z"/>
</svg>

<svg xmlns="http://www.w3.org/2000/svg" viewBox="0 0 24 24">
  <path d="M12.5 3a8 8 0 0 1 8 8.36l-.03.3.06.03a5 5 0 0 1 2.46 4.08L23 16a5 5 0 0 1-4.78 5H6.5a1 1 0 0 1-.32-.05h-.01l-.22-.04A6 6 0 0 1 1 15.23V15a6 6 0 0 1 3.57-5.49l.08-.03.02-.12A8 8 0 0 1 12.25 3zm-1.89 7.21a1 1 0 0 0-1.32 1.5L10.6 13l-1.3 1.3-.08.09a1 1 0 0 0 1.5 1.32L12 14.4l1.3 1.3.09.08a1 1 0 0 0 1.32-1.5L13.4 13l1.3-1.3.08-.09a1 1 0 0 0-1.5-1.32L12 11.6l-1.3-1.3z"/>
</svg>
